icon-themes/elementary_svg/cmd/sc_gotopage.svg

<svg height="16" width="16" xmlns="http://www.w3.org/2000/svg" xmlns:xlink="http://www.w3.org/1999/xlink"><linearGradient id="a" gradientTransform="matrix(.2538 0 0 .30502 19.13 -.685)" gradientUnits="userSpaceOnUse" x1="-51.786" x2="-51.786" y1="50.786" y2="2.906"><stop offset="0" stop-opacity=".34"/><stop offset="1" stop-opacity=".247"/></linearGradient><linearGradient id="b" gradientTransform="matrix(.24324 0 0 .35135 2.162 -.432)" gradientUnits="userSpaceOnUse" x1="24" x2="24" y1="6.923" y2="41.077"><stop offset="0" stop-color="#fff"/><stop offset="0" stop-color="#fff" stop-opacity=".235"/><stop offset="1" stop-color="#fff" stop-opacity=".157"/><stop offset="1" stop-color="#fff" stop-opacity=".392"/></linearGradient><linearGradient id="c" gradientTransform="matrix(.2857 0 0 .3042 1.143 .233)" gradientUnits="userSpaceOnUse" x1="25.132" x2="25.132" y1=".985" y2="47.013"><stop offset="0" stop-color="#f4f4f4"/><stop offset="1" stop-color="#dbdbdb"/></linearGradient><linearGradient id="d" gradientTransform="matrix(.36133 0 0 .3366 -1.134 .135)" gradientUnits="userSpaceOnUse" x1="22.53" x2="22.53" y1="8.51" y2="44.16"><stop offset="0" stop-color="#90dbec"/><stop offset=".262" stop-color="#55c1ec"/><stop offset=".705" stop-color="#3689e6"/><stop offset="1" stop-color="#2b63a0"/></linearGradient><linearGradient id="e" gradientTransform="matrix(0 -.39448 .42345 0 -.49 18.346)" gradientUnits="userSpaceOnUse" x1="43.973" x2="21.158" y1="15.342" y2="15.342"><stop offset="0" stop-color="#fff"/><stop offset=".512" stop-color="#fff" stop-opacity=".235"/><stop offset=".585" stop-color="#fff" stop-opacity=".157"/><stop offset="1" stop-color="#fff" stop-opacity=".392"/></linearGradient><path d="m3 1h10v14h-10z" fill="url(#c)"/><path d="m12.5 14.5h-9v-13h9z" fill="none" stroke="url(#b)" stroke-linecap="round"/><path d="m2.5.5h11v15h-11z" fill="none" stroke="url(#a)" stroke-linejoin="round"/><path d="m13.257 4.423c-3.27-3.753-8.603-2.558-8.747 3.11h-2.76l4.6 6.137 4.603-6.138h-2.74c-.128-3.298 2.88-5.006 5.042-2.65z" display="block" fill="url(#d)" transform="matrix(-1 0 0 1 16.007 0)"/><g fill="none"><path d="m11.654 3.542c-1.895-1.62-6.574-.41-6.207 4.962l-1.703.056 2.608 3.57 2.638-3.57h-1.686c-.497-5.14 3.584-5.502 4.35-5.018z" display="block" opacity=".8" stroke="url(#e)" stroke-miterlimit="7" stroke-width=".964" transform="matrix(-1 0 0 1 16.007 0)"/><path d="m2.75 4.423c3.27-3.752 8.603-2.558 8.746 3.11h2.762l-4.603 6.137-4.603-6.137h2.74c.128-3.298-2.88-5.006-5.042-2.65z" stroke="#00537d" stroke-linejoin="round" stroke-opacity=".498"/></g></svg>

<svg xmlns="http://www.w3.org/2000/svg" xmlns:xlink="http://www.w3.org/1999/xlink" height="16" width="16"><defs><linearGradient gradientTransform="matrix(.2538 0 0 .30502 19.13 -.685)" gradientUnits="userSpaceOnUse" xlink:href="#a" id="h" y2="2.906" x2="-51.786" y1="50.786" x1="-51.786"/><linearGradient id="a"><stop offset="0" stop-opacity=".34"/><stop offset="1" stop-opacity=".247"/></linearGradient><linearGradient gradientTransform="matrix(.24324 0 0 .35135 2.162 -.432)" gradientUnits="userSpaceOnUse" xlink:href="#b" id="g" y2="41.077" x2="24" y1="6.923" x1="24"/><linearGradient id="b"><stop offset="0" stop-color="#fff"/><stop offset="0" stop-color="#fff" stop-opacity=".235"/><stop offset="1" stop-color="#fff" stop-opacity=".157"/><stop offset="1" stop-color="#fff" stop-opacity=".392"/></linearGradient><linearGradient id="c"><stop offset="0" stop-color="#f4f4f4"/><stop offset="1" stop-color="#dbdbdb"/></linearGradient><linearGradient gradientTransform="matrix(.2857 0 0 .3042 1.143 .233)" gradientUnits="userSpaceOnUse" xlink:href="#c" id="f" y2="47.013" x2="25.132" y1=".985" x1="25.132"/><linearGradient x1="22.53" y1="8.51" x2="22.53" y2="44.16" id="i" xlink:href="#d" gradientUnits="userSpaceOnUse" gradientTransform="matrix(.36133 0 0 .3366 -1.134 .135)"/><linearGradient id="d"><stop offset="0" stop-color="#90dbec"/><stop offset=".262" stop-color="#55c1ec"/><stop offset=".705" stop-color="#3689e6"/><stop offset="1" stop-color="#2b63a0"/></linearGradient><linearGradient x1="43.973" y1="15.342" x2="21.158" y2="15.342" id="j" xlink:href="#e" gradientUnits="userSpaceOnUse" gradientTransform="matrix(0 -.39448 .42345 0 -.49 18.346)"/><linearGradient id="e"><stop offset="0" stop-color="#fff"/><stop offset=".512" stop-color="#fff" stop-opacity=".235"/><stop offset=".585" stop-color="#fff" stop-opacity=".157"/><stop offset="1" stop-color="#fff" stop-opacity=".392"/></linearGradient></defs><path d="M3 1h10v14H3V1z" fill="url(#f)"/><path d="M12.5 14.5h-9v-13h9z" fill="none" stroke="url(#g)" stroke-linecap="round"/><path d="M2.5.5h11v15h-11V.5z" fill="none" stroke="url(#h)" stroke-linejoin="round"/><path d="M13.257 4.423C9.987.67 4.654 1.865 4.51 7.533H1.75L6.35 13.67l4.603-6.138h-2.74c-.128-3.298 2.88-5.006 5.042-2.65z" display="block" overflow="visible" fill="url(#i)" transform="matrix(-1 0 0 1 16.007 0)"/><path d="M11.654 3.542c-1.895-1.62-6.574-.41-6.207 4.962l-1.703.056 2.608 3.57L8.99 8.56H7.304c-.497-5.14 3.584-5.502 4.35-5.018z" display="block" overflow="visible" opacity=".8" fill="none" stroke="url(#j)" stroke-width=".964" stroke-miterlimit="7" transform="matrix(-1 0 0 1 16.007 0)"/><path d="M2.75 4.423c3.27-3.752 8.603-2.558 8.746 3.11h2.762L9.655 13.67 5.052 7.533h2.74c.128-3.298-2.88-5.006-5.042-2.65z" style="isolation:auto;mix-blend-mode:normal" color="#000" overflow="visible" solid-color="#000000" fill="none" stroke="#00537d" stroke-linejoin="round" stroke-opacity=".498"/></svg>
